black/svg/1F4D5.svg

<svg id="emoji" viewBox="0 0 72 72" xmlns="http://www.w3.org/2000/svg">
  <g id="line">
    <path fill="none" stroke="#000" stroke-linecap="round" stroke-linejoin="round" stroke-width="2" d="m11.164,16.4512l4.8345-4.4512h43.003c.5515,0,.9985.447.9985.9985v43.003c0,.5515-.447.9985-.9985.9985"/>
    <path fill="none" stroke="#000" stroke-linecap="round" stroke-linejoin="round" stroke-width="2" d="m55.0015,61H11.9985c-.5515,0-.9985-.447-.9985-.9985V16.9985c0-.5515.447-.9985.9985-.9985h43.003c.5515,0,.9985.447.9985.9985v43.003c0,.5515-.447.9985-.9985.9985Z"/>
  </g>
</svg>

<svg id="emoji" viewBox="0 0 72 72" xmlns="http://www.w3.org/2000/svg">
  <g id="line">
    <path fill="none" stroke="#000000" stroke-linecap="round" stroke-linejoin="round" stroke-miterlimit="10" stroke-width="2" d="M11,17l4.9985-5h43.003C59.553,12,60,12.447,60,12.9985v43.003C60,56.553,59.553,57,59.0015,57"/>
    <path fill="none" stroke="#000000" stroke-linecap="round" stroke-linejoin="round" stroke-miterlimit="10" stroke-width="2" d="M55.0015,61h-43.003C11.447,61,11,60.553,11,60.0015v-43.003C11,16.447,11.447,16,11.9985,16h43.003 C55.553,16,56,16.447,56,16.9985v43.003C56,60.553,55.553,61,55.0015,61z"/>
  </g>
</svg>
